!!!!SEGMENT: T569_Pro-w13p84m65-72.krn
!!!COM: Prokofiev, Sergey (Sergeyevich)
!!!OTL: Piano Concerto No. 3 in C Major, op. 26
!!!OMV: II: Tema con variazioni (Theme and Variations)
!!!OMD:
!!!AGN: Orchestral; Concerto
!!!AGN-sub: Concerto
!!!CNT: Russian
!!!ODT: 1921
!!!OPR: Piano Concerto No. 3 in C Major, op. 26
!!!filename: T569_Pro-w13p84m65-72.krn
**kern	**dynam	**kern	**dynam	**kern	**dynam	**kern	**dynam	**kern	**dynam	**kern	**kern	**dynam
*grp:A	*	*grp:A	*	*grp:A	*	*grp:A	*	*grp:A	*	*grp:B	*grp:B	*
*part6	*	*part5	*	*part4	*	*part3	*	*part2	*	*part1	*part1	*
*staff7	*	*staff6	*	*staff5	*	*staff4	*	*staff3	*	*staff2	*staff1	*staff1/2
*ICstr	*	*ICstr	*	*ICstr	*	*ICstr	*	*ICstr	*	*ICklav	*ICklav	*
*Icbass	*	*Icello	*	*Iviola	*	*Ivioln	*	*Ivioln	*	*Ipiano	*Ipiano	*
*I"Contrabass	*	*I"Violoncello	*	*I"Viola	*	*I"Violin II	*	*I"Violin I	*	*I"Piano	*I"Piano	*
*I'cb	*	*I'vc	*	*I'vla	*	*I'vn	*	*I'vn	*	*I'pf	*I'pf	*
*clefF4	*	*clefF4	*	*clefC3	*	*clefG2	*	*clefG2	*	*clefF4	*clefG2	*
*ITrd7c12	*	*	*	*	*	*	*	*	*	*	*	*
*k[]	*	*k[]	*	*k[]	*	*k[]	*	*k[]	*	*k[]	*k[]	*
*C:	*	*C:	*	*C:	*	*C:	*	*C:	*	*C:	*C:	*
!!LO:TX:omd:tempo:a:t=Allegro moderato (poco meno mosso)\n{[quarter]=120; [quarter-dot]=120}
*M4/4	*	*M4/4	*	*M4/4	*	*M4/4	*	*M4/4	*	*M12/8	*M12/8	*
!!LO:REH:t=63
=65	=65	=65	=65	=65	=65	=65	=65	=65	=65	=65	=65	=65
*Xtuplet	*	*Xtuplet	*	*Xtuplet	*	*Xtuplet	*	*Xtuplet	*	*	*	*
*	*	*	*	*	*	*	*	*	*	*^	*^	*
!	!	!	!	!	!	!	!	!	!	!	!	!LO:TX:t=[[quarter-dot]=120]	!	!
!LO:TX:a:rj:t=Tutti	!	!LO:TX:rj:t=Tutti	!	!	!	!	!	!LO:TX:t=[[quarter]=120]	!	!	!	!LO:TX:B:t=Var. III	!	!
!LO:TX:t=arco	!	!LO:TX:t=arco	!	!	!	!	!	!	!	!	!	!LO:TX:B:t=Allegro moderato (poco meno mosso)	!LO:TX:t=P:problem:Cross-Measure Hanging Beams still need to be implemented.	!LO:DY:ed=brack
16%3CC^L	f	16%3C^L	f	2%3r	.	2%3r	.	2%3r)	.	8ryy	\8C	8ryy	\8e	f
.	.	.	.	.	.	.	.	.	.	8ryy	8E-XJ	8ryy	\8gJ	.
16%3r	.	16%3r	.	.	.	.	.	.	.	.	.	.	.	.
.	.	.	.	.	.	.	.	.	.	4B^	8BL	4ee-X^	8ee-L	.
16%3BBB^	.	16%3BB^	.	.	.	.	.	.	.	.	8D	.	8g-X	.
.	.	.	.	.	.	.	.	.	.	8ryy	8F#XJ	8ryy	8b-XJ	.
16%3r	.	16%3r	.	.	.	.	.	.	.	.	.	.	.	.
.	.	.	.	.	.	.	.	.	.	4BB-X^	8BB-L	4d^	8dL	.
16%3BBB-X^	.	16%3BB-X^	.	.	.	.	.	.	.	.	8Fn	.	\8a	.
.	.	.	.	.	.	.	.	.	.	8ryy	8D-XJ	8ryy	\8fJ	.
16%3r	.	16%3r	.	.	.	.	.	.	.	.	.	.	.	.
.	.	.	.	.	.	.	.	.	.	4B-X^	8B-L	4dd^	8ddL	.
16%3EEE^J	.	16%3EE^J	.	.	.	.	.	.	.	.	8A-X	.	8cc	.
.	.	.	.	.	.	.	.	.	.	8ryy	8cJ	8ryy	8eenJ	.
16%3r	.	16%3r	.	.	.	.	.	.	.	.	.	.	.	.
!	!	!	!	!	!	!	!	!	!	!	!LO:N:vis=4	!	!LO:N:vis=4	!
.	.	.	.	.	.	.	.	.	.	8GL	[y8G^>/	8bnL	[y8bn^>/	.
=66	=66	=66	=66	=66	=66	=66	=66	=66	=66	=66	=66	=66	=66	=66
16%3CC^L	.	16%3C^L	.	2%3r	.	2%3r	.	2%3r	.	8C	8G]yy	8e	8b]yy	.
.	.	.	.	.	.	.	.	.	.	8E-XJ	8ryy	\8gJ	8ryy	.
16%3r	.	16%3r	.	.	.	.	.	.	.	.	.	.	.	.
.	.	.	.	.	.	.	.	.	.	4Bn^	8BnL	4ee-X^	8ee-L	.
16%3BBB^	.	16%3BB^	.	.	.	.	.	.	.	.	8D	.	8g-X	.
.	.	.	.	.	.	.	.	.	.	8ryy	8F#XJ	8ryy	8b-XJ	.
16%3r	.	16%3r	.	.	.	.	.	.	.	.	.	.	.	.
.	.	.	.	.	.	.	.	.	.	4BB-X^	8BB-L	4d^	8dL	.
16%3BBB-X^	.	16%3BB-X^	.	.	.	.	.	.	.	.	8Fn	.	8a	.
.	.	.	.	.	.	.	.	.	.	8ryy	8D-XJ	8ryy	\8fJ	.
16%3r	.	16%3r	.	.	.	.	.	.	.	.	.	.	.	.
.	.	.	.	.	.	.	.	.	.	4B-X^	8B-L	4dd^	8ddL	.
16%3EEE^J	.	16%3EE^J	.	.	.	.	.	.	.	.	8A-X	.	8cc	.
.	.	.	.	.	.	.	.	.	.	8ryy	8cJ	8ryy	8eenJ	.
16%3r	.	16%3r	.	.	.	.	.	.	.	.	.	.	.	.
*	*	*	*	*	*	*	*	*	*	*v	*v	*	*	*
*	*	*	*	*	*	*	*	*	*	*	*v	*v	*
.	.	.	.	.	.	.	.	.	.	8G^	8bn^	.
=67	=67	=67	=67	=67	=67	=67	=67	=67	=67	=67	=67	=67
*	*	*	*	*Xtuplet	*	*Xtuplet	*	*	*	*	*	*
*	*	*	*	*	*	*	*	*	*	*	*^	*
16%3CC^	.	16%3C^L	.	8%3r^	.	8%3r^	.	2%3r	.	4c^ 4e	4ff#X^	8b-XL	.
.	.	.	.	.	.	.	.	.	.	.	.	8a	.
16%3r	.	16%3rGG	.	.	.	.	.	.	.	.	.	.	.
.	.	.	.	.	.	.	.	.	.	8r	8ffn	8a-XJ	.
8%3r^	.	16%3f#X^	.	16%3f#X^	f	16%3ff#X^	f	.	.	8cL 8e	8eeL	8gL	.
.	.	.	.	.	.	.	.	.	.	8c-X 8e-X	8ee-X	8g-X	.
.	.	16%3rGG	.	16%3r	.	16%3r	.	.	.	.	.	.	.
.	.	.	.	.	.	.	.	.	.	8B-XJ 8d	8ddJ	8fJ	.
16%3CC^	.	16%3C^	.	8%3r^	.	8%3r^	.	.	.	4A^ 4cn	4cc^	8eL	.
.	.	.	.	.	.	.	.	.	.	.	.	8f	.
16%3r	.	16%3rGG	.	.	.	.	.	.	.	.	.	.	.
.	.	.	.	.	.	.	.	.	.	8r	8dd-X	8eJ	.
8%3r^	.	16%3f#^J	.	16%3f#^	.	16%3ff#^	.	.	.	8A-XL 8c	8ccL	8e-XL	.
.	.	.	.	.	.	.	.	.	.	8G 8Bn	8bn	8d	.
.	.	16%3r	.	16%3r	.	16%3r	.	.	.	.	.	.	.
.	.	.	.	.	.	.	.	.	.	8FJ 8An	8anJ	8cJ	.
=68	=68	=68	=68	=68	=68	=68	=68	=68	=68	=68	=68	=68	=68
16%3AAA^	.	16%3AA^L	.	8%3r^	.	8%3r^	.	2%3r	.	4E^ 4G	4g^	8BL	.
.	.	.	.	.	.	.	.	.	.	.	.	8d	.
16%3r	.	16%3r	.	.	.	.	.	.	.	.	.	.	.
.	.	.	.	.	.	.	.	.	.	8r	8a	8cJ	.
8%3r^	.	16%3g^>	.	16%3g^	.	16%3gg^	.	.	.	8EL 8G	8gL	8BL	.
.	.	.	.	.	.	.	.	.	.	8D 8F	8f	8A	.
.	.	16%3r	.	16%3r	.	16%3r	.	.	.	.	.	.	.
.	.	.	.	.	.	.	.	.	.	8CJ 8E	8eJ	8GJ	.
16%3BBB-X^	.	16%3BB-X^J	.	16%3r^	.	16%3r^	.	.	.	4BB-X 4D	4d	8F	.
.	.	.	.	.	.	.	.	.	.	.	.	4B-X	.
16%3r	.	16%3r	.	16%3dL	f	16%3ddL	f	.	.	.	.	.	.
.	.	.	.	.	.	.	.	.	.	8F	8f	.	.
8%3r^	.	8%3r^	.	16%3dd^J	.	16%3ddd^J	.	.	.	4B-X^ 4d	4dd^	4b-X	.
.	.	.	.	16%3r	.	16%3r	.	.	.	.	.	.	.
*	*	*	*	*	*	*	*	*	*	*^	*	*	*
!	!	!	!	!	!	!	!	!	!	!LO:N:vis=4	!	!LO:N:vis=4	!	!
.	.	.	.	.	.	.	.	.	.	[y8G^>	8GL	[y8b-^>	8b-L	.
!!LO:REH:t=64
=69	=69	=69	=69	=69	=69	=69	=69	=69	=69	=69	=69	=69	=69	=69
16%3CC^L	f	16%3C^L	f	2%3r	.	2%3r	.	2%3r	.	4G]yy	8C	4b-]yy	8e-X	.
.	.	.	.	.	.	.	.	.	.	.	8E-XJ	.	\8g-XJ	.
16%3r	.	16%3r	.	.	.	.	.	.	.	.	.	.	.	.
.	.	.	.	.	.	.	.	.	.	4B^	8BL	4dd^	8ddL	.
16%3BBBn^	.	16%3BB^	.	.	.	.	.	.	.	.	8D	.	8f	.
.	.	.	.	.	.	.	.	.	.	8ryy	8F#XJ	8ryy	\8aJ	.
16%3r	.	16%3r	.	.	.	.	.	.	.	.	.	.	.	.
.	.	.	.	.	.	.	.	.	.	4BB-X^	8BB-L	4d-X^	8d-L	.
16%3BBB-X^	.	16%3BB-X^	.	.	.	.	.	.	.	.	8Fn	.	8a-X	.
.	.	.	.	.	.	.	.	.	.	8ryy	8D-XJ	8ryy	\8f-XJ	.
16%3r	.	16%3r	.	.	.	.	.	.	.	.	.	.	.	.
.	.	.	.	.	.	.	.	.	.	4B-X^	8B-L	4dd-X^	8dd-L	.
16%3GGG-X^J	.	16%3GG-X^J	.	.	.	.	.	.	.	.	8A-X	.	8cc-X	.
.	.	.	.	.	.	.	.	.	.	8ryy	8cnJ	8ryy	8ee-XJ	.
16%3r	.	16%3r	.	.	.	.	.	.	.	.	.	.	.	.
!	!	!	!	!	!	!	!	!	!	!LO:N:vis=4	!	!LO:N:vis=4	!	!
.	.	.	.	.	.	.	.	.	.	[y8G^>	8GL	[y8b-X^>	8b-L	.
=70	=70	=70	=70	=70	=70	=70	=70	=70	=70	=70	=70	=70	=70	=70
16%3CC^L	.	16%3C^L	.	2%3r	.	2%3r	.	2%3r	.	8G]yy	8C	8b-]yy	8e-X	.
.	.	.	.	.	.	.	.	.	.	8ryy	8E-XJ	8ryy	\8g-XJ	.
16%3r	.	16%3r	.	.	.	.	.	.	.	.	.	.	.	.
.	.	.	.	.	.	.	.	.	.	4Bn^	8BnL	4ddn^	8ddnL	.
16%3BBBn^	.	16%3BB^	.	.	.	.	.	.	.	.	8D	.	8f	.
.	.	.	.	.	.	.	.	.	.	8ryy	8F#XJ	8ryy	\8aJ	.
16%3r	.	16%3r	.	.	.	.	.	.	.	.	.	.	.	.
.	.	.	.	.	.	.	.	.	.	4BB-X^	8BB-L	4d-X^	8d-L	.
16%3BBB-X^	.	16%3BB-X^	.	.	.	.	.	.	.	.	8Fn	.	8a-X	.
.	.	.	.	.	.	.	.	.	.	8ryy	8D-XJ	8ryy	\8f-XJ	.
16%3r	.	16%3r	.	.	.	.	.	.	.	.	.	.	.	.
.	.	.	.	.	.	.	.	.	.	4B-X^	8B-XL	4dd-X^	8dd-L	.
16%3GGG-X^J	.	16%3GG-X^J	.	.	.	.	.	.	.	.	8A-X	.	8cc-X	.
.	.	.	.	.	.	.	.	.	.	8ryy	8cnJ	8ryy	8ee-XJ	.
16%3r	.	16%3r	.	.	.	.	.	.	.	.	.	.	.	.
*	*	*	*	*	*	*	*	*	*	*v	*v	*	*	*
*	*	*	*	*	*	*	*	*	*	*clefG2	*	*	*
.	.	.	.	.	.	.	.	.	.	8g-X	8bb-X	8ryy	.
*	*	*	*	*	*	*	*	*	*	*	*v	*v	*
=71	=71	=71	=71	=71	=71	=71	=71	=71	=71	=71	=71	=71
*M2/4	*	*M2/4	*	*M2/4	*	*M2/4	*	*M2/4	*	*M6/8	*M6/8	*
*	*	*	*	*	*	*	*	*	*	*	*8va	*
*^	*	*	*	*	*	*^	*	*	*	*^	*	*
*v	*v	*	*	*	*	*	*v	*v	*	*	*	*v	*v	*	*
*	*	*	*	*	*	*	*	*Xtuplet	*	*	*	*
*^	*	*	*	*	*	*^	*	*	*	*^	*	*
!LO:TX:a:t=div.	!	!	!	!	!	!	!LO:TX:a:rj:t=div.	!	!	!	!	!	!	!	!
4%3EE-X^v	4%3EEE-X^	f > ]	4%3B-X^v	f > ]	4%3dd^v	f > ]	4%3gg-X^v	4%3g-X^	f > ]	4%3bb-X^v	f > ]	8gg-X^L	2.b-X	8dddn^L 8ggg-X 8bbb-X	f
.	.	.	.	.	.	.	.	.	.	.	.	8ff	.	8bb-X	.
.	.	.	.	.	.	.	.	.	.	.	.	8ff-XJ	.	8cccJ 8fff-X 8aaa-X	.
.	.	.	.	.	.	.	.	.	.	.	.	8ee-XL	.	\8aa-XL	.
.	.	.	.	.	.	.	.	.	.	.	.	8dd	.	8bb-X 8ddd 8ggg-X	.
.	.	.	.	.	.	.	.	.	.	.	.	8ccJ	.	8gg-XJ	.
*v	*v	*	*	*	*	*	*v	*v	*	*	*	*v	*v	*	*
=72	=72	=72	=72	=72	=72	=72	=72	=72	=72	=72	=72	=72
*M4/4	*	*M4/4	*	*M4/4	*	*M4/4	*	*M4/4	*	*M12/8	*M12/8	*
*^	*	*	*	*	*	*^	*	*	*	*	*	*
8%3AA-X~	8%3AAA-X~	mp	8%3A-X~	mp	8%3dd-X~	mp	8%3ff~	8%3f~	mp	8%3aa-X~	mf	\8dd-XL	8aa-XL 8ddd-X 8fff	.
.	.	.	.	.	.	.	.	.	.	.	.	8g-X	8bb-X	.
.	.	.	.	.	.	.	.	.	.	.	.	8gnJ	(8bbnJ 8eee-X	.
8%3D-X~	8%3DD-X~	.	8%3A-~	.	8%3cc~	.	8%3ff-X~	8%3f-X~	.	8%3aa-~	.	8a-XL	8cccL 8fff-X)	.
*	*	*	*	*	*	*	*	*	*	*	*	*	*X8va	*
.	.	.	.	.	.	.	.	.	.	.	.	8an	8r	.
.	.	.	.	.	.	.	.	.	.	.	.	8b-XJ	(8ffnJ 8bb-X 8dddn	.
8%3G-X~	8%3GG-X~	.	8%3G-X~	.	8%3cc-X~	.	8%3ee-X~	8%3e-X~	.	8%3gg-X~	.	8cc-XL	8gg-XL 8ccc-X 8eee-X)	.
.	.	.	.	.	.	.	.	.	.	.	.	8ccn	8r	.
.	.	.	.	.	.	.	.	.	.	.	.	8dd-XJ	(8aanJ 8ddd-X	.
8%3EE-X~	8%3EEE-X~	.	8%3B-X~	.	8%3ddn~	.	8%3gg-X~	8%3g-X~	.	8%3bb-X~	.	8ddnL	8bb-XL 8dddn)	.
.	.	.	.	.	.	.	.	.	.	.	.	8ee-X	8r	.
.	.	.	.	.	.	.	.	.	.	.	.	8eenJ	(8ggnJ 8cccn	.
*v	*v	*	*	*	*	*	*v	*v	*	*	*	*	*	*
=	=	=	=	=	=	=	=	=	=	=	=	=
*-	*-	*-	*-	*-	*-	*-	*-	*-	*-	*-	*-	*-
!!!system-decoration: [({(s1,s2)})][([(s3,s4)]s5[(s6,s7)])]
!!!RDF**kern: > = above
!!!RDF**kern: < = below
!!!EED: Daniel Wright
!!!EEV: 2021/08/19
!!!EED2: Gabriella Vici
!!!Suter_Work_ID: Pro-13
!!!Suter_Example_Number: 569
!!!Suter_Example_ID: Pro-13/84/65-72
!!!Premiere_Location: Chicago,United States
!!!Other_Tsigs: 6/8;2/4,12/8;4/4
!!!Full_Unit_Duration: 8:46
!!!First_Publication_Year: 1923
!!!First_Public_Performance_Year: 1921
!!!Example_Total_Measures: 8
!!!Example_Timestamp_Duration: 15
!!!Example_Start_Tsig_Type: changing
!!!Example_Start_Tsig_Mean_Beat_Rate: 120
!!!Example_Start_Tsig_Beat_Rate: 120;120
!!!Example_Start_Tsig_Beat: quarter;dotted-quarter
!!!Example_Start_Tsig: 4/4;12/8
!!!Example_Start_Timestamp: 2:44
!!!Example_Start_Tempo_Expression: Allegro moderato (poco meno mosso)
!!!Example_Start_Notated_Beat_Rate: {120};{120}
!!!Example_Start_Notated_Beat: {quarter};{dotted-quarter}
!!!Example_Start_Measure: 65
!!!Example_Metadata_Validated: Y
!!!Example_End_Timestamp: 2:59
!!!Example_End_Measure: 72
!!!Example_Dataset: T
!!!Editorial_Comments: No notated tempo. Example Start Notated Beat and Example Start Notated Beat Rate {quarter=120;dotted-quarter=120} calculated from recording (https://ubc-naxosmusiclibrary-com.eu1.proxy.openathens.net/catalogue/item.asp?cid=9.80509).
!!!Death_Place: Moscow,Russia
!!!Death_Date: 5-Mar-1953
!!!Changing_Tsig: yes
!!!Birth_Place: Sontsovka,Ukraine
!!!Birth_Date: 23-Apr-1891
!!!Audio_Example_Quarter_Note_Tempo:
!!!Audio_Example_Duration:
!!!EEV2: 2022/04/27
